dist/assets/icons/icon/swiper-after.svg

<svg width="26" height="26" viewBox="0 0 26 26" fill="none" xmlns="http://www.w3.org/2000/svg">
<path d="M12.0282 4.00232C12.2756 2.98358 13.7244 2.98358 13.9718 4.00232L14.667 6.86551C14.8267 7.5236 15.5807 7.8359 16.159 7.48355L18.6752 5.95054C19.5704 5.40508 20.5949 6.42956 20.0495 7.32482L18.5164 9.84098C18.1641 10.4193 18.4764 11.1733 19.1345 11.333L21.9977 12.0282C23.0164 12.2756 23.0164 13.7244 21.9977 13.9718L19.1345 14.667C18.4764 14.8267 18.1641 15.5807 18.5164 16.159L20.0495 18.6752C20.5949 19.5704 19.5704 20.5949 18.6752 20.0495L16.159 18.5164C15.5807 18.1641 14.8267 18.4764 14.667 19.1345L13.9718 21.9977C13.7244 23.0164 12.2756 23.0164 12.0282 21.9977L11.333 19.1345C11.1733 18.4764 10.4193 18.1641 9.84098 18.5164L7.32482 20.0495C6.42956 20.5949 5.40508 19.5704 5.95054 18.6752L7.48355 16.159C7.8359 15.5807 7.5236 14.8267 6.86551 14.667L4.00232 13.9718C2.98358 13.7244 2.98358 12.2756 4.00232 12.0282L6.86551 11.333C7.5236 11.1733 7.8359 10.4193 7.48355 9.84098L5.95054 7.32482C5.40508 6.42956 6.42956 5.40508 7.32482 5.95053L9.84098 7.48355C10.4193 7.8359 11.1733 7.5236 11.333 6.86551L12.0282 4.00232Z" fill="#DCA1F9"/>
</svg>

<svg width="26" height="26" viewBox="0 0 26 26" fill="none" xmlns="http://www.w3.org/2000/svg"><path d="M12.028 4.002c.248-1.018 1.696-1.018 1.944 0l.695 2.864a1 1 0 0 0 1.492.618l2.516-1.533c.895-.546 1.92.479 1.374 1.374L18.516 9.84a1 1 0 0 0 .619 1.492l2.863.695c1.018.248 1.018 1.696 0 1.944l-2.864.695a1 1 0 0 0-.618 1.492l1.534 2.516c.545.895-.48 1.92-1.375 1.374l-2.516-1.533a1 1 0 0 0-1.492.619l-.695 2.863c-.248 1.018-1.696 1.018-1.944 0l-.695-2.864a1 1 0 0 0-1.492-.618L7.325 20.05c-.895.545-1.92-.48-1.374-1.375l1.533-2.516a1 1 0 0 0-.618-1.492l-2.864-.695c-1.018-.248-1.018-1.696 0-1.944l2.864-.695a1 1 0 0 0 .618-1.492L5.95 7.325c-.546-.895.479-1.92 1.374-1.374L9.84 7.484a1 1 0 0 0 1.492-.618l.695-2.864Z" fill="#DCA1F9"/></svg>
